X:1
T:Jersey Devil
M:3/4
L:1/4
K:C
 A A A| c c c| d2 d| d2 d| e2 e| d2 d| c2 c| A A A| c c c| d2 d| d2 d|\
 c A A| B G2| A3-| A3|
